;FLAVOR:Marlin
;TIME:1067
;Filament used: 0.948584m
;Layer height: 0.2
;MINX:39.203
;MINY:41.703
;MINZ:0.3
;MAXX:110.797
;MAXY:98.297
;MAXZ:2.9
;Generated with Cura_SteamEngine 4.4.1
M140 S60
M105
M190 S60
M104 S230
M105
M109 S230
M82 ;absolute extrusion mode
M82 ;absolute extrusion mode
G21       ;metric values
G90       ;absolute positioning
M82       ;set extruder to absolute mode
M106      ;start with the fan on
G28 X0 Y0 ;home X/Y
G28 Z0    ;home Z
G92 E0    ;zero the extruded length
G29       ;initiate auto bed leveling sequence
G1 X150 Y145 Z15 F4000
G1 X150 Y145 Z0.30 F1000
G1 X1 Y150 Z0.25 E15.0 F2000
G1 X1 Y150 Z0.25 E14.0 F4000
G1 X1 Y1 Z0.25 F16000
G1 X1 Y1 Z0.25 E15.0 F4000
G92 E0
M107      ;start with the fan off
G92 E0
G92 E0
G92 E0
G1 F1500 E-6.5
;LAYER_COUNT:14
;LAYER:0
M107
;MESH:Enclosure_Cover.stl
G0 F3600 X60.656 Y43.151 Z0.3
;TYPE:WALL-INNER
G1 F1500 E0
G1 F1800 X52.98 Y43.15 E0.34175
G1 X52.347 Y43.193 E0.37
G1 X51.65 Y43.341 E0.40172
G1 X51.638 Y43.345 E0.40229
G1 X50.981 Y43.589 E0.43349
G1 X50.357 Y43.934 E0.46523
G1 X49.788 Y44.365 E0.49701
G1 X49.289 Y44.876 E0.52881
G1 X48.871 Y45.455 E0.56061
G1 X48.544 Y46.088 E0.59233
G1 X48.31 Y46.761 E0.62405
G1 X48.177 Y47.47 E0.65617
G1 X48.15 Y49.567 E0.74954
G1 X48.151 Y52.637 E0.88622
G1 X49.15 Y52.64 E0.9307
G1 X49.151 Y87.85 E2.49832
G1 X48.151 Y87.851 E2.54284
G1 X48.154 Y92.188 E2.73593
G1 X48.232 Y92.886 E2.7672
G1 X48.413 Y93.576 E2.79896
G1 X48.694 Y94.232 E2.83073
G1 X49.068 Y94.84 E2.86252
G1 X49.527 Y95.386 E2.89427
G1 X50.062 Y95.859 E2.92607
G1 X50.659 Y96.248 E2.95779
G1 X51.308 Y96.546 E2.98959
G1 X51.689 Y96.656 E3.00724
G1 X51.994 Y96.744 E3.02137
G1 X52.695 Y96.841 E3.05288
G1 X53.897 Y96.849 E3.1064
G1 X54.637 Y96.849 E3.13934
G1 X60.006 Y96.85 E3.37838
G1 X60.649 Y96.837 E3.40702
G1 X60.649 Y96.746 E3.41107
G1 X60.65 Y95.85 E3.45096
G1 X89.35 Y95.85 E4.72874
G1 X89.351 Y96.752 E4.7689
G1 X89.351 Y96.849 E4.77322
G1 X97.02 Y96.85 E5.11466
G1 X97.653 Y96.807 E5.14291
G1 X98.35 Y96.659 E5.17463
G1 X98.362 Y96.655 E5.17519
G1 X99.019 Y96.411 E5.2064
G1 X99.643 Y96.066 E5.23814
G1 X100.212 Y95.635 E5.26992
G1 X100.711 Y95.124 E5.30172
G1 X101.129 Y94.545 E5.33351
G1 X101.456 Y93.912 E5.36524
G1 X101.69 Y93.239 E5.39696
G1 X101.822 Y92.53 E5.42907
G1 X101.85 Y90.616 E5.51429
G1 X101.849 Y87.851 E5.63739
G1 X100.85 Y87.85 E5.68187
G1 X100.849 Y52.15 E7.27131
G1 X101.849 Y52.149 E7.31583
G1 X101.846 Y47.812 E7.50892
G1 X101.768 Y47.114 E7.54019
G1 X101.587 Y46.424 E7.57195
G1 X101.306 Y45.768 E7.60372
G1 X100.932 Y45.16 E7.63551
G1 X100.473 Y44.614 E7.66726
G1 X99.938 Y44.141 E7.69906
G1 X99.341 Y43.752 E7.73078
G1 X98.692 Y43.454 E7.76258
G1 X98.311 Y43.344 E7.78023
G1 X98.006 Y43.256 E7.79436
G1 X97.305 Y43.159 E7.82587
G1 X96.103 Y43.151 E7.87939
G1 X95.363 Y43.151 E7.91234
G1 X89.994 Y43.15 E8.15137
G1 X89.351 Y43.163 E8.18001
G1 X89.351 Y43.254 E8.18406
G1 X89.35 Y44.15 E8.22395
G1 X60.657 Y44.15 E9.50142
G1 X60.656 Y43.248 E9.54158
G1 X60.656 Y43.151 E9.5459
G0 F3600 X60.726 Y43.081
G0 X107.389 Y43.077
G0 X107.405 Y42.979
G1 F1800 X107.897 Y43.112 E9.56859
G1 X108.347 Y43.332 E9.59089
G1 X108.746 Y43.638 E9.61328
G1 X109.081 Y44.023 E9.636
G1 X109.329 Y44.457 E9.65825
G1 X109.488 Y44.932 E9.68055
G1 X109.553 Y45.462 E9.70433
G1 X109.553 Y94.478 E11.88662
G1 X109.514 Y94.938 E11.90717
G1 X109.378 Y95.426 E11.92973
G1 X109.149 Y95.876 E11.95221
G1 X108.84 Y96.269 E11.97447
G1 X108.454 Y96.597 E11.99702
G1 X108.011 Y96.843 E12.01958
G1 X107.538 Y96.994 E12.04168
G1 X107.001 Y97.054 E12.06574
G1 X98.363 Y97.054 E12.45032
G1 X98.35 Y97.054 E12.4509
G1 X97.653 Y97.054 E12.47577
G1 X97.02 Y97.054 E12.49166
G1 X89.351 Y97.054 E12.66622
G1 X89.254 Y97.054 E12.66979
G1 X60.74 Y97.054 E13.93929
G1 X60.649 Y97.054 E13.94269
G1 X60.006 Y97.054 E13.95776
G1 X54.637 Y97.054 E14.07997
G1 X53.897 Y97.054 E14.09685
G1 X52.695 Y97.054 E14.12482
G1 X51.994 Y97.054 E14.1452
G1 X51.676 Y97.054 E14.15778
G1 X43.021 Y97.053 E14.54312
G1 X42.533 Y97.009 E14.56493
G1 X42.044 Y96.866 E14.58761
G1 X41.603 Y96.634 E14.6098
G1 X41.203 Y96.313 E14.63263
G1 X40.885 Y95.928 E14.65487
G1 X40.645 Y95.482 E14.67742
G1 X40.498 Y95.005 E14.69964
G1 X40.446 Y94.471 E14.72353
G1 X40.447 Y45.526 E16.90266
G1 X40.498 Y44.995 E16.92641
G1 X40.645 Y44.518 E16.94863
G1 X40.885 Y44.072 E16.97118
G1 X41.203 Y43.687 E16.99341
G1 X41.603 Y43.366 E17.01624
G1 X42.044 Y43.134 E17.03843
G1 X42.534 Y42.991 E17.06115
G1 X43.022 Y42.946 E17.08297
G1 X51.637 Y42.946 E17.46653
G1 X51.65 Y42.946 E17.46711
G1 X52.347 Y42.946 E17.49198
G1 X52.98 Y42.946 E17.50787
G1 X60.656 Y42.946 E17.68259
G1 X60.753 Y42.946 E17.68616
G1 X89.26 Y42.946 E18.95535
G1 X89.351 Y42.946 E18.95875
G1 X89.994 Y42.946 E18.97382
G1 X95.363 Y42.946 E19.09602
G1 X96.103 Y42.946 E19.11291
G1 X97.305 Y42.946 E19.14087
G1 X98.006 Y42.946 E19.16125
G1 X98.324 Y42.946 E19.17383
G1 X106.981 Y42.947 E19.55926
G1 X107.405 Y42.979 E19.57819
G0 F3600 X107.471 Y42.583
;TYPE:WALL-OUTER
G1 F1800 X108.039 Y42.736 E19.60438
G1 X108.557 Y42.99 E19.63007
G1 X109.025 Y43.349 E19.65633
G1 X109.406 Y43.786 E19.68214
G1 X109.696 Y44.294 E19.70818
G1 X109.88 Y44.845 E19.73405
G1 X109.953 Y45.437 E19.7606
G1 X109.953 Y94.5 E21.94499
G1 X109.91 Y95.005 E21.96755
G1 X109.752 Y95.573 E21.9938
G1 X109.488 Y96.091 E22.01969
G1 X109.127 Y96.55 E22.04569
G1 X108.683 Y96.928 E22.07165
G1 X108.171 Y97.212 E22.09771
G1 X107.62 Y97.388 E22.12347
G1 X107.027 Y97.454 E22.15003
G1 X54.637 Y97.454 E24.48254
G1 X43.007 Y97.453 E25.00033
G1 X42.456 Y97.403 E25.02496
G1 X41.894 Y97.239 E25.05103
G1 X41.38 Y96.969 E25.07688
G1 X40.923 Y96.601 E25.103
G1 X40.551 Y96.152 E25.12896
G1 X40.275 Y95.639 E25.1549
G1 X40.104 Y95.082 E25.18084
G1 X40.046 Y94.49 E25.20732
G1 X40.047 Y45.509 E27.38805
G1 X40.104 Y44.918 E27.41449
G1 X40.275 Y44.361 E27.44043
G1 X40.551 Y43.848 E27.46637
G1 X40.923 Y43.399 E27.49233
G1 X41.38 Y43.031 E27.51845
G1 X41.894 Y42.761 E27.5443
G1 X42.457 Y42.597 E27.57041
G1 X43.007 Y42.546 E27.595
G1 X95.363 Y42.546 E29.92599
G1 X106.998 Y42.547 E30.44401
G1 X107.471 Y42.583 E30.46513
G0 F3600 X107.664 Y42.635
G0 X107.533 Y43.116
G0 X52.979 Y43.111
G0 X51.639 Y43.303
G0 X50.336 Y43.901
G0 X49.259 Y44.851
G0 X48.508 Y46.073
G0 X48.152 Y47.395
G0 X48.051 Y88.251
G0 X48.551 Y88.251
G1 F1800 X48.554 Y92.166 E30.63943
G1 X48.626 Y92.813 E30.66841
G1 X48.792 Y93.446 E30.69755
G1 X49.05 Y94.047 E30.72667
G1 X49.393 Y94.605 E30.75583
G1 X49.814 Y95.106 E30.78496
G1 X50.305 Y95.54 E30.81414
G1 X50.853 Y95.897 E30.84326
G1 X51.448 Y96.17 E30.8724
G1 X52.077 Y96.352 E30.90156
G1 X52.724 Y96.441 E30.93063
G1 X53.898 Y96.449 E30.9829
G1 X60.002 Y96.45 E31.25467
G1 X60.249 Y96.445 E31.26567
G1 X60.25 Y95.45 E31.30997
G1 X89.75 Y95.45 E32.62337
G1 X89.751 Y96.449 E32.66784
G1 X97.007 Y96.45 E32.99089
G1 X97.598 Y96.41 E33.01727
G1 X98.238 Y96.274 E33.0464
G1 X98.852 Y96.046 E33.07556
G1 X99.424 Y95.73 E33.10465
G1 X99.947 Y95.334 E33.13386
G1 X100.404 Y94.866 E33.16298
G1 X100.787 Y94.335 E33.19213
G1 X101.088 Y93.754 E33.22126
G1 X101.302 Y93.136 E33.25038
G1 X101.423 Y92.49 E33.27964
G1 X101.45 Y90.613 E33.36322
G1 X101.449 Y88.251 E33.46838
G1 X100.45 Y88.25 E33.51286
G1 X100.449 Y51.75 E35.13791
G1 X101.449 Y51.749 E35.18243
G1 X101.446 Y47.834 E35.35674
G1 X101.374 Y47.187 E35.38572
G1 X101.208 Y46.554 E35.41486
G1 X100.95 Y45.953 E35.44398
G1 X100.607 Y45.395 E35.47314
G1 X100.186 Y44.894 E35.50227
G1 X99.695 Y44.46 E35.53145
G1 X99.147 Y44.103 E35.56057
G1 X98.552 Y43.83 E35.58971
G1 X97.923 Y43.648 E35.61887
G1 X97.276 Y43.559 E35.64794
G1 X96.102 Y43.551 E35.70021
G1 X89.998 Y43.55 E35.97197
G1 X89.751 Y43.555 E35.98297
G1 X89.75 Y44.55 E36.02727
G1 X60.257 Y44.55 E37.34036
G1 X60.256 Y43.551 E37.38484
G1 X52.993 Y43.55 E37.7082
G1 X52.402 Y43.59 E37.73458
G1 X51.762 Y43.726 E37.76371
G1 X51.148 Y43.954 E37.79287
G1 X50.576 Y44.27 E37.82196
G1 X50.053 Y44.666 E37.85117
G1 X49.596 Y45.134 E37.88029
G1 X49.213 Y45.665 E37.90944
G1 X48.912 Y46.246 E37.93857
G1 X48.698 Y46.864 E37.96769
G1 X48.577 Y47.51 E37.99695
G1 X48.55 Y49.57 E38.08867
G1 X48.551 Y52.238 E38.20746
G1 X49.55 Y52.241 E38.25194
G1 X49.551 Y88.25 E39.85513
G1 X48.551 Y88.251 E39.89965
G0 F3600 X48.551 Y88.451
G0 X48.051 Y88.451
G0 X48.761 Y87.46
;TYPE:SKIN
G1 F1800 X47.761 Y87.461 E39.94417
G1 X47.764 Y92.21 E40.15561
G1 X47.848 Y92.958 E40.18912
G1 X48.043 Y93.703 E40.22341
G1 X48.347 Y94.412 E40.25775
G1 X48.75 Y95.068 E40.29203
G1 X49.247 Y95.659 E40.32641
G1 X49.826 Y96.171 E40.36082
G1 X50.47 Y96.591 E40.39505
G1 X50.629 Y96.664 E40.40284
G1 X43.034 Y96.663 E40.74099
G1 X42.605 Y96.625 E40.76016
G1 X42.193 Y96.504 E40.77928
G1 X41.817 Y96.306 E40.7982
G1 X41.476 Y96.032 E40.81767
G1 X41.211 Y95.712 E40.83617
G1 X41.008 Y95.334 E40.85527
G1 X40.882 Y94.925 E40.87433
G1 X40.836 Y94.453 E40.89544
G1 X40.837 Y45.543 E43.07301
G1 X40.882 Y45.074 E43.09399
G1 X41.008 Y44.666 E43.113
G1 X41.211 Y44.288 E43.13211
G1 X41.476 Y43.968 E43.1506
G1 X41.817 Y43.694 E43.17008
G1 X42.193 Y43.496 E43.189
G1 X42.606 Y43.375 E43.20816
G1 X43.035 Y43.336 E43.22734
G1 X50.632 Y43.336 E43.56557
G1 X50.144 Y43.606 E43.5904
G1 X49.529 Y44.072 E43.62476
G1 X48.99 Y44.624 E43.6591
G1 X48.538 Y45.25 E43.69348
G1 X48.185 Y45.934 E43.72775
G1 X47.932 Y46.66 E43.76198
G1 X47.787 Y47.431 E43.79691
G1 X47.76 Y49.565 E43.89193
G1 X47.761 Y53.025 E44.04597
G1 X48.76 Y53.028 E44.09045
G1 X48.761 Y87.46 E45.62343
G0 F3600 X45.16 Y56.618
G1 F1800 X45.161 Y83.86 E46.8363
G1 X44.436 Y83.861 E46.86858
G1 X44.437 Y56.616 E48.08158
G1 X45.16 Y56.618 E48.11377
G0 F3600 X45.56 Y56.219
G1 F1800 X45.561 Y84.26 E49.36221
G1 X44.561 Y84.261 E49.40674
G1 X44.564 Y92.393 E49.76879
G1 X44.686 Y93.464 E49.81678
G1 X44.036 Y93.463 E49.84572
G1 X44.037 Y46.536 E51.935
G1 X44.698 Y46.536 E51.96443
G1 X44.587 Y47.111 E51.99051
G1 X44.56 Y49.549 E52.09906
G1 X44.561 Y56.216 E52.39589
G1 X45.56 Y56.219 E52.44036
G0 F3600 X44.961 Y55.817
G1 F1800 X45.96 Y55.82 E52.48484
G1 X45.961 Y84.66 E53.76886
G1 X44.961 Y84.661 E53.81338
G1 X44.964 Y92.37 E54.1566
G1 X45.09 Y93.473 E54.20602
G1 X45.192 Y93.864 E54.22402
G1 X43.636 Y93.863 E54.29329
G1 X43.637 Y46.136 E56.41819
G1 X45.182 Y46.136 E56.48698
G1 X44.987 Y47.151 E56.533
G1 X44.96 Y49.551 E56.63986
G1 X44.961 Y55.817 E56.91883
G0 F3600 X45.361 Y55.418
G1 F1800 X46.36 Y55.421 E56.96331
G1 X46.361 Y85.06 E58.2829
G1 X45.361 Y85.061 E58.32742
G1 X45.364 Y92.347 E58.65181
G1 X45.484 Y93.399 E58.69895
G1 X45.711 Y94.264 E58.73876
G1 X43.236 Y94.263 E58.84896
G1 X43.237 Y45.736 E61.00948
G1 X45.714 Y45.736 E61.11976
G1 X45.608 Y46.036 E61.13392
G1 X45.387 Y47.191 E61.18628
G1 X45.36 Y49.553 E61.29145
G1 X45.361 Y55.418 E61.55257
G0 F3600 X45.761 Y55.019
G1 F1800 X46.76 Y55.022 E61.59704
G1 X46.761 Y85.46 E62.95221
G1 X45.761 Y85.461 E62.99673
G1 X45.764 Y92.324 E63.30228
G1 X45.878 Y93.325 E63.34714
G1 X46.147 Y94.353 E63.39445
G1 X46.28 Y94.664 E63.40951
G1 X43.108 Y94.663 E63.55073
G1 X42.98 Y94.651 E63.55645
G1 X42.95 Y94.643 E63.55784
G1 X42.915 Y94.625 E63.55959
G1 X42.887 Y94.603 E63.56117
G1 X42.878 Y94.591 E63.56184
G1 X42.859 Y94.554 E63.56369
G1 X42.852 Y94.534 E63.56464
G1 X42.836 Y94.366 E63.57215
G1 X42.837 Y45.629 E65.74202
G1 X42.852 Y45.473 E65.749
G1 X42.86 Y45.446 E65.75025
G1 X42.883 Y45.403 E65.75242
G1 X42.889 Y45.396 E65.75283
G1 X42.917 Y45.374 E65.75442
G1 X42.943 Y45.36 E65.75573
G1 X42.987 Y45.347 E65.75778
G1 X43.11 Y45.336 E65.76327
G1 X46.278 Y45.336 E65.90432
G1 X45.995 Y46.14 E65.94227
G1 X45.787 Y47.231 E65.99172
G1 X45.76 Y49.555 E66.09519
G1 X45.761 Y55.019 E66.33846
G0 F3600 X46.161 Y54.62
G1 F1800 X47.16 Y54.623 E66.38294
G1 X47.161 Y85.86 E67.77367
G1 X46.161 Y85.861 E67.81819
G1 X46.164 Y92.301 E68.10492
G1 X46.272 Y93.251 E68.14749
G1 X46.526 Y94.223 E68.19221
G1 X46.886 Y95.064 E68.23294
G1 X43.094 Y95.063 E68.40177
G1 X42.907 Y95.046 E68.41013
G1 X42.799 Y95.015 E68.41513
G1 X42.693 Y94.96 E68.42045
G1 X42.606 Y94.89 E68.42542
G1 X42.546 Y94.817 E68.42963
G1 X42.488 Y94.709 E68.43509
G1 X42.458 Y94.611 E68.43965
G1 X42.436 Y94.383 E68.44985
G1 X42.437 Y45.612 E70.62123
G1 X42.458 Y45.391 E70.63111
G1 X42.489 Y45.292 E70.63573
G1 X42.547 Y45.182 E70.64127
G1 X42.607 Y45.11 E70.64544
G1 X42.695 Y45.039 E70.65048
G1 X42.795 Y44.986 E70.65552
G1 X42.914 Y44.951 E70.66104
G1 X43.087 Y44.936 E70.66877
G1 X46.901 Y44.936 E70.83858
G1 X46.713 Y45.302 E70.8569
G1 X46.382 Y46.244 E70.90135
G1 X46.187 Y47.271 E70.94789
G1 X46.16 Y49.557 E71.04967
G1 X46.161 Y54.62 E71.27509
G0 F3600 X46.561 Y54.221
G1 F1800 X47.56 Y54.224 E71.31957
G1 X47.561 Y86.26 E72.74587
G1 X46.561 Y86.261 E72.7904
G1 X46.564 Y92.278 E73.05829
G1 X46.666 Y93.178 E73.09861
G1 X46.905 Y94.093 E73.14072
G1 X47.279 Y94.966 E73.183
G1 X47.586 Y95.464 E73.20905
G1 X43.082 Y95.463 E73.40957
G1 X42.832 Y95.441 E73.42075
G1 X42.645 Y95.387 E73.42941
G1 X42.475 Y95.297 E73.43798
G1 X42.324 Y95.176 E73.44659
G1 X42.213 Y95.042 E73.45434
G1 X42.117 Y94.861 E73.46346
G1 X42.064 Y94.69 E73.47143
G1 X42.036 Y94.4 E73.4844
G1 X42.037 Y45.595 E75.6573
G1 X42.064 Y45.312 E75.66996
G1 X42.119 Y45.134 E75.67825
G1 X42.212 Y44.96 E75.68704
G1 X42.324 Y44.824 E75.69488
G1 X42.475 Y44.703 E75.70349
G1 X42.646 Y44.613 E75.7121
G1 X42.836 Y44.557 E75.72092
G1 X43.075 Y44.536 E75.7316
G1 X47.573 Y44.536 E75.93186
G1 X47.512 Y44.62 E75.93648
G1 X47.081 Y45.46 E75.97851
G1 X46.769 Y46.348 E76.02042
G1 X46.587 Y47.311 E76.06405
G1 X46.56 Y49.559 E76.16415
G1 X46.561 Y54.221 E76.37171
G0 F3600 X46.961 Y53.822
G1 F1800 X47.96 Y53.825 E76.41618
G1 X47.961 Y86.66 E77.87807
G1 X46.961 Y86.661 E77.92259
G1 X46.964 Y92.255 E78.17164
G1 X47.06 Y93.105 E78.20973
G1 X47.284 Y93.963 E78.24921
G1 X47.635 Y94.781 E78.28884
G1 X48.099 Y95.536 E78.32829
G1 X48.374 Y95.864 E78.34735
G1 X43.06 Y95.863 E78.58394
G1 X42.758 Y95.837 E78.59744
G1 X42.496 Y95.76 E78.60959
G1 X42.255 Y95.633 E78.62172
G1 X42.042 Y95.462 E78.63388
G1 X41.878 Y95.264 E78.64533
G1 X41.747 Y95.019 E78.6577
G1 X41.67 Y94.769 E78.66935
G1 X41.636 Y94.417 E78.68509
G1 X41.637 Y45.578 E80.8595
G1 X41.67 Y45.231 E80.87502
G1 X41.748 Y44.98 E80.88672
G1 X41.878 Y44.736 E80.89903
G1 X42.042 Y44.538 E80.91048
G1 X42.255 Y44.367 E80.92264
G1 X42.496 Y44.24 E80.93477
G1 X42.759 Y44.163 E80.94697
G1 X43.063 Y44.136 E80.96056
G1 X48.357 Y44.136 E81.19626
G1 X47.854 Y44.83 E81.23442
G1 X47.449 Y45.618 E81.27386
G1 X47.156 Y46.452 E81.31322
G1 X46.987 Y47.351 E81.35394
G1 X46.96 Y49.561 E81.45235
G1 X46.961 Y53.822 E81.64205
G0 F3600 X47.361 Y53.423
G1 F1800 X48.36 Y53.426 E81.68653
G1 X48.361 Y87.06 E83.18398
G1 X47.361 Y87.061 E83.22851
G1 X47.364 Y92.232 E83.45873
G1 X47.454 Y93.032 E83.49457
G1 X47.663 Y93.833 E83.53143
G1 X47.991 Y94.596 E83.5684
G1 X48.424 Y95.302 E83.60528
G1 X48.959 Y95.939 E83.64231
G1 X49.326 Y96.264 E83.66414
G1 X43.048 Y96.263 E83.94365
G1 X42.681 Y96.231 E83.96005
G1 X42.343 Y96.132 E83.97573
G1 X42.037 Y95.97 E83.99115
G1 X41.76 Y95.748 E84.00695
G1 X41.543 Y95.486 E84.0221
G1 X41.378 Y95.178 E84.03765
G1 X41.276 Y94.846 E84.05312
G1 X41.236 Y94.435 E84.0715
G1 X41.237 Y45.561 E86.24747
G1 X41.276 Y45.152 E86.26576
G1 X41.378 Y44.822 E86.28114
G1 X41.543 Y44.514 E86.2967
G1 X41.76 Y44.252 E86.31184
G1 X42.037 Y44.03 E86.32765
G1 X42.343 Y43.868 E86.34306
G1 X42.682 Y43.769 E86.35879
G1 X43.049 Y43.736 E86.37519
G1 X49.311 Y43.736 E86.65399
G1 X49.263 Y43.772 E86.65666
G1 X48.684 Y44.366 E86.69359
G1 X48.196 Y45.04 E86.73064
G1 X47.817 Y45.776 E86.7675
