;FLAVOR:Marlin
;TIME:1834
;Filament used: 1.72644m
;Layer height: 0.2
;MINX:45.101
;MINY:40.101
;MINZ:0.3
;MAXX:104.899
;MAXY:99.899
;MAXZ:11.5
;Generated with Cura_SteamEngine 4.4.1
M140 S60
M105
M190 S60
M104 S210
M105
M109 S210
M82 ;absolute extrusion mode
M82 ;absolute extrusion mode
G21       ;metric values
G90       ;absolute positioning
M82       ;set extruder to absolute mode
M106      ;start with the fan on
G28 X0 Y0 ;home X/Y
G28 Z0    ;home Z
G92 E0    ;zero the extruded length
G29       ;initiate auto bed leveling sequence
G1 X150 Y145 Z15 F4000
G1 X150 Y145 Z0.30 F1000
G1 X1 Y150 Z0.25 E15.0 F2000
G1 X1 Y150 Z0.25 E14.0 F4000
G1 X1 Y1 Z0.25 F16000
G1 X1 Y1 Z0.25 E15.0 F4000
G92 E0
M107      ;start with the fan off
G92 E0
G92 E0
G92 E0
G1 F1500 E-6.5
;LAYER_COUNT:57
;LAYER:0
M107
;MESH:Enclosure.stl
G0 F3600 X46.582 Y44.949 Z0.3
;TYPE:WALL-INNER
G1 F1500 E0
G1 F1800 X46.391 Y45.408 E0.02406
G1 X46.345 Y45.517 E0.02978
G1 X46.228 Y45.884 E0.04843
G1 X46.158 Y46.103 E0.05955
G1 X46.093 Y46.398 E0.07417
G1 X46.025 Y46.703 E0.08929
G1 X46.001 Y46.89 E0.09842
G1 X45.944 Y47.314 E0.11912
G1 X45.941 Y47.402 E0.12338
G1 X45.918 Y47.905 E0.14775
G1 X45.918 Y47.968 E0.1508
G1 X45.918 Y92.095 E2.28626
G1 X45.925 Y92.255 E2.29401
G1 X45.944 Y92.686 E2.31489
G1 X45.954 Y92.764 E2.31869
G1 X46.017 Y93.237 E2.34178
G1 X46.025 Y93.297 E2.34471
G1 X46.134 Y93.79 E2.36915
G1 X46.158 Y93.897 E2.37445
G1 X46.275 Y94.266 E2.39319
G1 X46.345 Y94.483 E2.40422
G1 X46.454 Y94.744 E2.41791
G1 X46.582 Y95.051 E2.43401
G1 X46.659 Y95.199 E2.44208
G1 X46.866 Y95.595 E2.4637
G1 X46.926 Y95.688 E2.46906
G1 X47.189 Y96.099 E2.49267
G1 X47.198 Y96.113 E2.49348
G1 X47.514 Y96.522 E2.51849
G1 X47.633 Y96.675 E2.52787
G1 X47.623 Y96.686 E2.52859
G1 X47.492 Y96.54 E2.52916
G1 X47.18 Y96.127 E2.53072
G1 X47.169 Y96.113 E2.53077
G1 X46.901 Y95.705 E2.53239
G1 X46.847 Y95.606 E2.53276
G1 X46.634 Y95.213 E2.53413
G1 X46.564 Y95.06 E2.53466
G1 X46.424 Y94.757 E2.53571
G1 X46.326 Y94.491 E2.53663
G1 X46.247 Y94.276 E2.53735
G1 X46.138 Y93.903 E2.53853
G1 X46.107 Y93.797 E2.53886
G1 X46.004 Y93.302 E2.54036
G1 X45.991 Y93.241 E2.54058
G1 X45.926 Y92.768 E2.54214
G1 X45.922 Y92.688 E2.54243
G1 X45.896 Y92.257 E2.54376
G1 X45.896 Y92.096 E2.54432
G1 X45.891 Y47.968 E2.67515
G1 X45.893 Y47.904 E2.67537
G1 X45.915 Y47.401 E2.67692
G1 X45.924 Y47.312 E2.67719
G1 X45.969 Y46.886 E2.67854
G1 X46.004 Y46.7 E2.67917
G1 X46.064 Y46.392 E2.68012
G1 X46.14 Y46.099 E2.68098
G1 X46.198 Y45.875 E2.68169
G1 X46.325 Y45.511 E2.6829
G1 X46.364 Y45.398 E2.68327
G1 X46.559 Y44.94 E2.68486
G1 X46.569 Y44.917 E2.68607
G1 X46.811 Y44.454 E2.71136
G1 X46.847 Y44.394 E2.71474
G1 X47.069 Y44.031 E2.73533
G1 X47.182 Y43.876 E2.74462
G1 X47.392 Y43.588 E2.76187
G1 X47.622 Y43.313 E2.77922
G1 X47.633 Y43.325
G1 X47.416 Y43.606 E2.78014
G1 X47.198 Y43.887 E2.78114
G1 X47.096 Y44.047 E2.78165
G1 X46.866 Y44.405 E2.78301
G1 X46.835 Y44.466 E2.78316
G1 X46.593 Y44.929 E2.7848
G1 X46.582 Y44.949
G0 F3600 X48.557 Y43.168
G0 X49.69 Y42.338
G0 X50.708 Y41.861
G0 X51.791 Y41.569
G0 X52.928 Y41.469
G0 X97.638 Y41.494
G0 X100.051 Y41.582
G1 F1800 X99.596 Y41.392 E2.80866
G1 X99.483 Y41.345 E2.81459
G1 X99.108 Y41.226 E2.83363
G1 X98.897 Y41.158 E2.84435
G1 X98.605 Y41.094 E2.85882
G1 X98.297 Y41.025 E2.8741
G1 X98.108 Y41 E2.88332
G1 X97.686 Y40.944 E2.90392
G1 X97.597 Y40.941 E2.90823
G1 X97.095 Y40.918 E2.93255
G1 X97.031 Y40.918 E2.93565
G1 X52.905 Y40.918 E5.07106
G1 X52.756 Y40.924 E5.07828
G1 X52.314 Y40.944 E5.09969
G1 X52.237 Y40.954 E5.10345
G1 X51.755 Y41.018 E5.12698
G1 X51.703 Y41.025 E5.12952
G1 X51.21 Y41.134 E5.15395
G1 X51.103 Y41.158 E5.15926
G1 X50.731 Y41.276 E5.17814
G1 X50.517 Y41.345 E5.18902
G1 X50.256 Y41.454 E5.20271
G1 X49.949 Y41.582 E5.21881
G1 X49.776 Y41.672 E5.22825
G1 X49.405 Y41.866 E5.24851
G1 X49.32 Y41.92 E5.25338
G1 X48.887 Y42.198 E5.27828
G1 X48.478 Y42.514 E5.30329
G1 X48.325 Y42.633 E5.31267
G1 X48.314 Y42.623 E5.31339
G1 X48.46 Y42.492 E5.31396
G1 X48.88 Y42.175 E5.31576
G1 X49.304 Y41.896 E5.31711
G1 X49.394 Y41.847 E5.31744
G1 X49.762 Y41.647 E5.31865
G1 X49.94 Y41.565 E5.31926
G1 X50.243 Y41.424 E5.32033
G1 X50.509 Y41.326 E5.32125
G1 X50.721 Y41.248 E5.32192
G1 X51.097 Y41.138 E5.3231
G1 X51.203 Y41.107 E5.32344
G1 X51.698 Y41.004 E5.32493
G1 X51.751 Y40.993 E5.32513
G1 X52.233 Y40.926 E5.32669
G1 X52.312 Y40.922 E5.32697
G1 X52.754 Y40.896 E5.32831
G1 X52.904 Y40.896 E5.32883
G1 X97.031 Y40.891 E5.45965
G1 X97.096 Y40.893 E5.45988
G1 X97.598 Y40.916 E5.4614
G1 X97.687 Y40.925 E5.46164
G1 X98.112 Y40.969 E5.46297
G1 X98.3 Y41.005 E5.46359
G1 X98.611 Y41.065 E5.46453
G1 X98.901 Y41.14 E5.46538
G1 X99.117 Y41.196 E5.46609
G1 X99.489 Y41.325 E5.4673
G1 X99.606 Y41.366 E5.46765
G1 X100.06 Y41.559 E5.46922
G1 X100.083 Y41.569 E5.47043
G1 X100.534 Y41.804 E5.49504
G1 X100.606 Y41.847 E5.4991
G1 X100.978 Y42.075 E5.52022
G1 X101.124 Y42.182 E5.52898
G1 X101.412 Y42.392 E5.54623
G1 X101.687 Y42.622 E5.56358
G1 X101.675 Y42.633
G1 X101.394 Y42.416 E5.56449
G1 X101.113 Y42.198 E5.5655
G1 X100.962 Y42.101 E5.56599
G1 X100.595 Y41.866 E5.56729
G1 X100.522 Y41.828 E5.56748
G1 X100.071 Y41.593 E5.56908
G1 X100.051 Y41.582
G0 F3600 X101.832 Y43.557
G0 X102.662 Y44.69
G0 X103.139 Y45.708
G0 X103.431 Y46.791
G0 X103.531 Y47.928
G0 X103.506 Y92.638
G0 X103.418 Y95.051
G1 F1800 X103.607 Y94.597 E5.59288
G1 X103.655 Y94.483 E5.59886
G1 X103.774 Y94.108 E5.6179
G1 X103.842 Y93.897 E5.62863
G1 X103.906 Y93.605 E5.6431
G1 X103.975 Y93.297 E5.65837
G1 X103.999 Y93.109 E5.66754
G1 X104.056 Y92.686 E5.6882
G1 X104.06 Y92.588 E5.69294
G1 X104.082 Y92.095 E5.71683
G1 X104.082 Y92.032 E5.71987
G1 X104.082 Y47.905 E7.85533
G1 X104.075 Y47.745 E7.86308
G1 X104.056 Y47.314 E7.88396
G1 X104.046 Y47.235 E7.88782
G1 X103.983 Y46.763 E7.91086
G1 X103.975 Y46.703 E7.91379
G1 X103.866 Y46.21 E7.93822
G1 X103.842 Y46.103 E7.94353
G1 X103.723 Y45.728 E7.96257
G1 X103.655 Y45.517 E7.9733
G1 X103.546 Y45.256 E7.98699
G1 X103.418 Y44.949 E8.00308
G1 X103.33 Y44.78 E8.0123
G1 X103.134 Y44.405 E8.03278
G1 X103.083 Y44.325 E8.03737
G1 X102.802 Y43.887 E8.06255
G1 X102.486 Y43.478 E8.08757
G1 X102.367 Y43.325 E8.09695
G1 X102.377 Y43.314 E8.09767
G1 X102.508 Y43.46 E8.09823
G1 X102.825 Y43.88 E8.10009
G1 X103.107 Y44.309 E8.10155
G1 X103.153 Y44.394 E8.10186
G1 X103.356 Y44.766 E8.10314
G1 X103.436 Y44.94 E8.10373
G1 X103.576 Y45.243 E8.10478
G1 X103.674 Y45.509 E8.10569
G1 X103.751 Y45.718 E8.10636
G1 X103.862 Y46.097 E8.10753
G1 X103.893 Y46.203 E8.10786
G1 X103.996 Y46.698 E8.10935
G1 X104.009 Y46.759 E8.10958
G1 X104.074 Y47.231 E8.11113
G1 X104.078 Y47.312 E8.11142
G1 X104.104 Y47.743 E8.11276
G1 X104.104 Y47.904 E8.11332
G1 X104.109 Y92.032 E8.24414
G1 X104.107 Y92.096 E8.24437
G1 X104.085 Y92.589 E8.24586
G1 X104.075 Y92.687 E8.24612
G1 X104.031 Y93.113 E8.24749
G1 X103.995 Y93.3 E8.24811
G1 X103.935 Y93.611 E8.24905
G1 X103.86 Y93.901 E8.2499
G1 X103.804 Y94.117 E8.25061
G1 X103.675 Y94.489 E8.25182
G1 X103.634 Y94.607 E8.25219
G1 X103.441 Y95.06 E8.25376
G1 X103.433 Y95.079 E8.25475
G1 X103.192 Y95.541 E8.27997
G1 X103.153 Y95.606 E8.28364
G1 X102.931 Y95.969 E8.30423
G1 X102.818 Y96.124 E8.31351
G1 X102.61 Y96.41 E8.33063
G1 X102.378 Y96.687 E8.34811
G1 X102.367 Y96.675
G1 X102.586 Y96.392 E8.349
G1 X102.802 Y96.113 E8.35
G1 X102.904 Y95.953 E8.3505
G1 X103.134 Y95.595 E8.35186
G1 X103.168 Y95.529 E8.35205
G1 X103.409 Y95.067 E8.35373
G1 X103.418 Y95.051 E8.35374
G0 F3600 X101.443 Y96.832
G0 X100.31 Y97.662
G0 X99.292 Y98.139
G0 X98.209 Y98.431
G0 X52.314 Y99.056
G1 F1800 X52.403 Y99.059 E8.35805
G1 X52.905 Y99.082 E8.38237
G1 X52.969 Y99.082 E8.38547
G1 X97.095 Y99.082 E10.52088
G1 X97.244 Y99.076 E10.5281
G1 X97.686 Y99.056 E10.54951
G1 X97.763 Y99.046 E10.55327
G1 X98.246 Y98.982 E10.57685
G1 X98.297 Y98.975 E10.57934
G1 X98.79 Y98.866 E10.60377
G1 X98.897 Y98.842 E10.60908
G1 X99.269 Y98.724 E10.62796
G1 X99.483 Y98.655 E10.63885
G1 X99.744 Y98.546 E10.65253
G1 X100.051 Y98.418 E10.66863
G1 X100.224 Y98.328 E10.67807
G1 X100.595 Y98.134 E10.69833
G1 X100.68 Y98.08 E10.7032
G1 X101.113 Y97.802 E10.7281
G1 X101.522 Y97.486 E10.75311
G1 X101.675 Y97.367 E10.76249
G1 X101.686 Y97.377 E10.76321
G1 X101.54 Y97.508 E10.76378
G1 X101.12 Y97.825 E10.76561
G1 X100.696 Y98.104 E10.76699
G1 X100.606 Y98.153 E10.76732
G1 X100.238 Y98.353 E10.76854
G1 X100.06 Y98.435 E10.76914
G1 X99.757 Y98.576 E10.77022
G1 X99.491 Y98.674 E10.77113
G1 X99.279 Y98.752 E10.7718
G1 X98.903 Y98.862 E10.77299
G1 X98.797 Y98.893 E10.77332
G1 X98.302 Y98.996 E10.77481
G1 X98.25 Y99.007 E10.77501
G1 X97.767 Y99.074 E10.77657
G1 X97.688 Y99.078 E10.77686
G1 X97.246 Y99.104 E10.77819
G1 X97.096 Y99.104 E10.77872
G1 X52.969 Y99.109 E10.90954
G1 X52.904 Y99.107 E10.90976
G1 X52.402 Y99.084 E10.91128
G1 X52.313 Y99.075 E10.91152
G1 X51.888 Y99.031 E10.9322
G1 X51.7 Y98.995 E10.94146
G1 X51.389 Y98.935 E10.95679
G1 X51.099 Y98.86 E10.97129
G1 X50.883 Y98.804 E10.98208
G1 X50.511 Y98.675 E11.00114
G1 X50.394 Y98.634 E11.00714
G1 X49.94 Y98.441 E11.03101
G1 X49.912 Y98.429 E11.03249
G1 X49.468 Y98.197 E11.05673
G1 X49.395 Y98.152 E11.06088
G1 X49.022 Y97.925 E11.08201
G1 X48.876 Y97.818 E11.09077
G1 X48.588 Y97.608 E11.10802
G1 X48.313 Y97.378 E11.12537
G1 X48.325 Y97.367
G1 X48.606 Y97.584 E11.12629
G1 X48.887 Y97.802 E11.1273
G1 X49.038 Y97.899 E11.12778
G1 X49.405 Y98.134 E11.12905
G1 X49.48 Y98.173 E11.12924
G1 X49.924 Y98.405 E11.13077
G1 X49.949 Y98.418 E11.13081
G1 X50.404 Y98.608 E11.13238
G1 X50.517 Y98.655 E11.13268
G1 X50.892 Y98.774 E11.1339
G1 X51.103 Y98.842 E11.13451
G1 X51.395 Y98.906 E11.13531
G1 X51.703 Y98.975 E11.1362
G1 X51.892 Y99 E11.13677
G1 X52.314 Y99.056 E11.13801
G0 F3600 X50.19 Y97.928
G0 X48.134 Y96.726
G1 F1800 X48.213 Y96.787 E11.14284
G1 X48.274 Y96.866 E11.14767
G1 X48.283 Y96.857
G1 X48.292 Y96.848 E11.14829
G1 X49.112 Y97.483 E11.19848
G1 X49.601 Y97.796 E11.22657
G1 X50.115 Y98.065 E11.25465
G1 X50.651 Y98.289 E11.28276
G1 X51.205 Y98.465 E11.31089
G1 X51.771 Y98.591 E11.33895
G1 X52.348 Y98.667 E11.36712
G1 X52.914 Y98.692 E11.39453
G1 X97.086 Y98.692 E13.53217
G1 X97.652 Y98.667 E13.55959
G1 X98.229 Y98.591 E13.58775
G1 X98.795 Y98.465 E13.61581
G1 X99.349 Y98.289 E13.64395
G1 X99.885 Y98.065 E13.67206
G1 X100.399 Y97.796 E13.70013
G1 X100.888 Y97.483 E13.72823
G1 X101.708 Y96.848 E13.77842
G1 X101.717 Y96.857 E13.77904
G1 X101.726 Y96.866 E13.77965
G1 X101.787 Y96.787 E13.7823
G1 X101.866 Y96.726 E13.78713
G1 X101.857 Y96.717
G1 X101.848 Y96.708 E13.78742
G1 X102.483 Y95.888 E13.83761
G1 X102.796 Y95.399 E13.86571
G1 X103.065 Y94.885 E13.89378
G1 X103.289 Y94.349 E13.92189
G1 X103.465 Y93.795 E13.95002
G1 X103.591 Y93.229 E13.97809
G1 X103.667 Y92.652 E14.00625
G1 X103.692 Y92.086 E14.03367
G1 X103.692 Y47.914 E16.1713
G1 X103.667 Y47.348 E16.19872
G1 X103.591 Y46.771 E16.22689
G1 X103.465 Y46.205 E16.25495
G1 X103.289 Y45.651 E16.28308
G1 X103.065 Y45.115 E16.31119
G1 X102.796 Y44.601 E16.33927
G1 X102.483 Y44.112 E16.36736
G1 X101.848 Y43.292 E16.41755
G1 X101.857 Y43.283 E16.41817
G1 X101.866 Y43.274 E16.41878
G1 X101.787 Y43.213 E16.42143
G1 X101.726 Y43.134 E16.42626
G1 X101.717 Y43.143
G1 X101.708 Y43.152 E16.42655
G1 X100.888 Y42.517 E16.47674
G1 X100.399 Y42.204 E16.50484
G1 X99.885 Y41.935 E16.53291
G1 X99.349 Y41.711 E16.56103
G1 X98.795 Y41.535 E16.58916
G1 X98.229 Y41.409 E16.61722
G1 X97.652 Y41.333 E16.64538
G1 X97.086 Y41.308 E16.6728
G1 X52.914 Y41.308 E18.81044
G1 X52.348 Y41.333 E18.83785
G1 X51.771 Y41.409 E18.86602
G1 X51.205 Y41.535 E18.89408
G1 X50.651 Y41.711 E18.92221
G1 X50.115 Y41.935 E18.95032
G1 X49.601 Y42.204 E18.9784
G1 X49.112 Y42.517 E19.0065
G1 X48.292 Y43.152 E19.05669
G1 X48.283 Y43.143 E19.0573
G1 X48.274 Y43.134 E19.05792
G1 X48.213 Y43.213 E19.06056
G1 X48.134 Y43.274 E19.06539
G1 X48.143 Y43.283
G1 X48.152 Y43.292 E19.06568
G1 X47.517 Y44.112 E19.11587
G1 X47.204 Y44.601 E19.14397
G1 X46.935 Y45.115 E19.17205
G1 X46.711 Y45.651 E19.20016
G1 X46.535 Y46.205 E19.22829
G1 X46.409 Y46.771 E19.25635
G1 X46.333 Y47.348 E19.28451
G1 X46.308 Y47.914 E19.31193
G1 X46.308 Y92.086 E21.44957
G1 X46.333 Y92.652 E21.47699
G1 X46.409 Y93.229 E21.50515
G1 X46.535 Y93.795 E21.53321
G1 X46.711 Y94.349 E21.56134
G1 X46.935 Y94.885 E21.58946
G1 X47.204 Y95.399 E21.61753
G1 X47.517 Y95.888 E21.64563
G1 X48.152 Y96.708 E21.69582
G1 X48.143 Y96.717
G1 X48.134 Y96.726
G0 F3600 X47.082 Y94.821
G0 X46.69 Y93.751
G0 X46.494 Y92.638
G0 X46.494 Y47.362
G0 X46.69 Y46.249
G0 X47.082 Y45.179
G0 X47.651 Y44.201
G0 X48.168 Y43.557
G0 X49.69 Y42.338
G0 X50.708 Y41.861
G0 X51.791 Y41.569
G0 X98.169 Y40.583
G1 F1800 X98.699 Y40.685 E21.72194
G1 X99.223 Y40.82 E21.74812
G1 X99.755 Y41.005 E21.77538
G1 X100.253 Y41.217 E21.80157
G1 X100.72 Y41.461 E21.82707
G1 X101.195 Y41.751 E21.854
G1 X101.649 Y42.082 E21.88119
G1 X102.062 Y42.427 E21.90724
G1 X102.445 Y42.804 E21.93324
G1 X102.811 Y43.215 E21.95988
G1 X103.145 Y43.657 E21.98669
G1 X103.44 Y44.106 E22.01269
G1 X103.704 Y44.59 E22.03937
G1 X103.938 Y45.098 E22.06643
G1 X104.12 Y45.592 E22.09191
G1 X104.273 Y46.113 E22.11819
G1 X104.391 Y46.679 E22.14617
G1 X104.462 Y47.194 E22.17133
G1 X104.494 Y47.743 E22.19794
G1 X104.499 Y92.048 E24.34201
G1 X104.475 Y92.615 E24.36948
G1 X104.417 Y93.169 E24.39643
G1 X104.315 Y93.699 E24.42255
G1 X104.18 Y94.223 E24.44874
G1 X103.993 Y94.76 E24.47626
G1 X103.785 Y95.249 E24.50197
G1 X103.535 Y95.727 E24.52808
G1 X103.255 Y96.186 E24.5541
G1 X102.92 Y96.646 E24.58164
G1 X102.573 Y97.062 E24.60785
G1 X102.196 Y97.445 E24.63386
G1 X101.785 Y97.811 E24.66049
G1 X101.343 Y98.145 E24.6873
G1 X100.894 Y98.44 E24.7133
G1 X100.414 Y98.701 E24.73974
G1 X99.907 Y98.936 E24.76679
G1 X99.405 Y99.121 E24.79268
G1 X98.886 Y99.273 E24.81885
G1 X98.326 Y99.39 E24.84653
G1 X97.805 Y99.462 E24.87199
G1 X97.251 Y99.494 E24.89884
G1 X52.952 Y99.499 E27.04262
G1 X52.378 Y99.474 E27.07043
G1 X51.831 Y99.417 E27.09704
G1 X51.301 Y99.315 E27.12316
G1 X50.777 Y99.18 E27.14935
G1 X50.245 Y98.995 E27.17661
G1 X49.752 Y98.785 E27.20254
G1 X49.271 Y98.533 E27.22882
G1 X48.805 Y98.249 E27.25523
G1 X48.351 Y97.918 E27.28242
G1 X47.938 Y97.573 E27.30846
G1 X47.554 Y97.195 E27.33453
G1 X47.189 Y96.785 E27.3611
G1 X46.85 Y96.337 E27.38829
G1 X46.565 Y95.903 E27.41341
G1 X46.291 Y95.399 E27.44117
G1 X46.062 Y94.902 E27.46766
G1 X45.878 Y94.402 E27.49344
G1 X45.727 Y93.886 E27.51946
G1 X45.609 Y93.321 E27.54739
G1 X45.538 Y92.805 E27.5726
G1 X45.506 Y92.257 E27.59916
G1 X45.501 Y47.952 E29.74324
G1 X45.525 Y47.385 E29.7707
G1 X45.583 Y46.828 E29.7978
G1 X45.686 Y46.294 E29.82412
G1 X45.82 Y45.777 E29.84996
G1 X46.005 Y45.245 E29.87722
G1 X46.217 Y44.747 E29.90341
G1 X46.465 Y44.273 E29.9293
G1 X46.745 Y43.814 E29.95532
G1 X47.082 Y43.351 E29.98304
G1 X47.427 Y42.938 E30.00908
G1 X47.804 Y42.555 E30.03509
G1 X48.215 Y42.189 E30.06172
G1 X48.657 Y41.855 E30.08853
G1 X49.106 Y41.56 E30.11453
G1 X49.586 Y41.299 E30.14097
G1 X50.093 Y41.064 E30.16801
G1 X50.595 Y40.879 E30.1939
G1 X51.114 Y40.727 E30.22007
G1 X51.675 Y40.61 E30.24781
G1 X52.195 Y40.538 E30.27321
G1 X52.749 Y40.506 E30.30007
G1 X97.048 Y40.501 E32.44385
G1 X97.622 Y40.526 E32.47165
G1 X98.169 Y40.583 E32.49827
G0 F3600 X98.226 Y40.187
;TYPE:WALL-OUTER
G1 F1800 X98.781 Y40.293 E32.52561
G1 X99.347 Y40.439 E32.5539
G1 X99.895 Y40.63 E32.58198
G1 X100.417 Y40.852 E32.60943
G1 X100.924 Y41.117 E32.63712
G1 X101.418 Y41.419 E32.66514
G1 X101.891 Y41.764 E32.69347
