;FLAVOR:Marlin
;TIME:3049
;Filament used: 2.22137m
;Layer height: 0.2
;MINX:39.2
;MINY:40.842
;MINZ:0.3
;MAXX:110.8
;MAXY:99.161
;MAXZ:14.3
;Generated with Cura_SteamEngine 4.4.1
M140 S60
M105
M190 S60
M104 S230
M105
M109 S230
M82 ;absolute extrusion mode
M82 ;absolute extrusion mode
G21       ;metric values
G90       ;absolute positioning
M82       ;set extruder to absolute mode
M106      ;start with the fan on
G28 X0 Y0 ;home X/Y
G28 Z0    ;home Z
G92 E0    ;zero the extruded length
G29       ;initiate auto bed leveling sequence
G1 X150 Y145 Z15 F4000
G1 X150 Y145 Z0.30 F1000
G1 X1 Y150 Z0.25 E15.0 F2000
G1 X1 Y150 Z0.25 E14.0 F4000
G1 X1 Y1 Z0.25 F16000
G1 X1 Y1 Z0.25 E15.0 F4000
G92 E0
M107      ;start with the fan off
G92 E0
G92 E0
G92 E0
G1 F1500 E-6.5
;LAYER_COUNT:71
;LAYER:0
M107
;MESH:Enclosure_Body.stl
G0 F3600 X48.7 Y88.77 Z0.3
;TYPE:WALL-INNER
G1 F1500 E0
G1 F1800 X101.3 Y88.77 E2.34186
G1 X101.3 Y81.89 E2.64817
G1 X48.7 Y81.89 E4.99003
G1 X48.7 Y88.77 E5.29634
G0 F3600 X48.63 Y88.84
G0 X48.672 Y81.862
G0 X107.891 Y42.323
G0 X107.917 Y42.227
G1 F1800 X108.347 Y42.38 E5.31666
G1 X108.764 Y42.595 E5.33755
G1 X109.143 Y42.861 E5.35816
G1 X109.481 Y43.178 E5.37879
G1 X109.776 Y43.539 E5.39955
G1 X110.017 Y43.933 E5.42011
G1 X110.198 Y44.353 E5.44047
G1 X110.326 Y44.808 E5.46152
G1 X110.39 Y45.265 E5.48206
G1 X110.4 Y94.476 E7.67304
G1 X110.368 Y94.96 E7.69463
G1 X110.273 Y95.417 E7.71541
G1 X110.12 Y95.847 E7.73573
G1 X109.905 Y96.264 E7.75662
G1 X109.639 Y96.643 E7.77724
G1 X109.322 Y96.981 E7.79787
G1 X108.961 Y97.276 E7.81862
G1 X108.567 Y97.517 E7.83919
G1 X108.147 Y97.698 E7.85955
G1 X107.693 Y97.826 E7.88055
G1 X107.231 Y97.89 E7.90132
G1 X106.719 Y97.9 E7.92412
G1 X43.024 Y97.9 E10.75995
G1 X42.54 Y97.868 E10.78154
G1 X42.083 Y97.773 E10.80232
G1 X41.653 Y97.62 E10.82264
G1 X41.236 Y97.405 E10.84353
G1 X40.857 Y97.139 E10.86415
G1 X40.519 Y96.822 E10.88478
G1 X40.224 Y96.461 E10.90553
G1 X39.983 Y96.067 E10.9261
G1 X39.802 Y95.647 E10.94646
G1 X39.674 Y95.192 E10.9675
G1 X39.61 Y94.735 E10.98805
G1 X39.6 Y45.524 E13.17902
G1 X39.632 Y45.04 E13.20062
G1 X39.727 Y44.583 E13.2214
G1 X39.88 Y44.153 E13.24172
G1 X40.095 Y43.736 E13.26261
G1 X40.361 Y43.357 E13.28322
G1 X40.678 Y43.019 E13.30385
G1 X41.039 Y42.724 E13.32461
G1 X41.433 Y42.483 E13.34517
G1 X41.853 Y42.302 E13.36553
G1 X42.308 Y42.174 E13.38658
G1 X42.765 Y42.11 E13.40712
G1 X106.33 Y42.1 E16.23716
G1 X106.976 Y42.1 E16.26593
G1 X107.46 Y42.132 E16.28752
G1 X107.917 Y42.227 E16.3083
G0 F3600 X108.024 Y41.84
;TYPE:WALL-OUTER
G1 F1800 X108.505 Y42.011 E16.33103
G1 X108.971 Y42.252 E16.35439
G1 X109.395 Y42.55 E16.37746
G1 X109.776 Y42.906 E16.40068
G1 X110.1 Y43.303 E16.42349
G1 X110.374 Y43.752 E16.44691
G1 X110.576 Y44.218 E16.46952
G1 X110.718 Y44.726 E16.49301
G1 X110.79 Y45.237 E16.51598
G1 X110.8 Y94.487 E18.70869
G1 X110.765 Y95.017 E18.73234
G1 X110.66 Y95.524 E18.75539
G1 X110.489 Y96.005 E18.77812
G1 X110.248 Y96.471 E18.80148
G1 X109.95 Y96.895 E18.82455
G1 X109.594 Y97.276 E18.84777
G1 X109.197 Y97.6 E18.87058
G1 X108.748 Y97.874 E18.894
G1 X108.282 Y98.076 E18.91661
G1 X107.774 Y98.218 E18.9401
G1 X107.262 Y98.29 E18.96312
G1 X106.726 Y98.3 E18.98698
G1 X43.013 Y98.3 E21.82362
G1 X42.483 Y98.265 E21.84726
G1 X41.976 Y98.16 E21.87032
G1 X41.495 Y97.989 E21.89304
G1 X41.029 Y97.748 E21.9164
G1 X40.605 Y97.45 E21.93947
G1 X40.224 Y97.094 E21.96269
G1 X39.9 Y96.697 E21.9855
G1 X39.626 Y96.248 E22.00892
G1 X39.424 Y95.782 E22.03154
G1 X39.282 Y95.274 E22.05502
G1 X39.21 Y94.763 E22.07799
G1 X39.2 Y45.513 E24.2707
G1 X39.235 Y44.983 E24.29435
G1 X39.34 Y44.476 E24.3174
G1 X39.511 Y43.995 E24.34013
G1 X39.752 Y43.529 E24.36349
G1 X40.05 Y43.105 E24.38656
G1 X40.406 Y42.724 E24.40978
G1 X40.803 Y42.4 E24.43259
G1 X41.252 Y42.126 E24.45601
G1 X41.718 Y41.924 E24.47862
G1 X42.226 Y41.782 E24.50211
G1 X42.737 Y41.71 E24.52508
G1 X106.33 Y41.7 E27.35637
G1 X106.987 Y41.7 E27.38562
G1 X107.517 Y41.735 E27.40927
G1 X108.024 Y41.84 E27.43232
G0 F3600 X108.212 Y41.907
G0 X108.044 Y42.378
G0 X48.672 Y81.862
G0 X48.6 Y88.37
G0 X49.1 Y88.37
G1 F1800 X100.9 Y88.37 E29.73856
G1 X100.9 Y82.29 E30.00926
G1 X49.1 Y82.29 E32.3155
G1 X49.1 Y88.37 E32.58619
G0 F3600 X49.3 Y88.37
G0 X49.3 Y88.87
G0 X48.31 Y89.16
;TYPE:SKIN
G1 F1800 X101.69 Y89.16 E34.96278
G1 X101.69 Y81.5 E35.30382
G1 X48.31 Y81.5 E37.6804
G1 X48.31 Y89.16 E38.02144
G0 F3600 X43.049 Y97.51
G1 F1800 X42.589 Y97.48 E38.04196
G1 X42.184 Y97.396 E38.06038
G1 X41.814 Y97.263 E38.07788
G1 X41.44 Y97.071 E38.0966
G1 X41.097 Y96.83 E38.11526
G1 X40.807 Y96.557 E38.133
G1 X40.543 Y96.234 E38.15157
G1 X40.33 Y95.885 E38.16977
G1 X40.173 Y95.523 E38.18734
G1 X40.056 Y95.106 E38.20662
G1 X40 Y94.709 E38.22447
G1 X39.99 Y45.549 E40.41318
G1 X40.02 Y45.089 E40.4337
G1 X40.104 Y44.684 E40.45211
G1 X40.237 Y44.314 E40.46962
G1 X40.429 Y43.94 E40.48834
G1 X40.668 Y43.599 E40.50688
G1 X40.943 Y43.307 E40.52474
G1 X41.266 Y43.043 E40.54331
G1 X41.615 Y42.83 E40.56151
G1 X41.977 Y42.673 E40.57908
G1 X42.394 Y42.556 E40.59836
G1 X42.791 Y42.5 E40.61621
G1 X106.33 Y42.49 E43.4451
G1 X106.951 Y42.49 E43.47274
G1 X107.411 Y42.52 E43.49327
G1 X107.816 Y42.604 E43.51168
G1 X108.186 Y42.737 E43.52919
G1 X108.56 Y42.929 E43.54791
G1 X108.901 Y43.168 E43.56645
G1 X109.193 Y43.443 E43.5843
G1 X109.457 Y43.766 E43.60288
G1 X109.67 Y44.115 E43.62108
G1 X109.827 Y44.477 E43.63865
G1 X109.944 Y44.894 E43.65793
G1 X110 Y45.291 E43.67578
G1 X110.01 Y94.451 E45.86448
G1 X109.98 Y94.911 E45.88501
G1 X109.896 Y95.316 E45.90342
G1 X109.763 Y95.686 E45.92093
G1 X109.571 Y96.06 E45.93964
G1 X109.332 Y96.401 E45.95818
G1 X109.057 Y96.693 E45.97604
G1 X108.734 Y96.957 E45.99461
G1 X108.385 Y97.17 E46.01282
G1 X108.016 Y97.33 E46.03072
G1 X107.613 Y97.444 E46.04937
G1 X107.204 Y97.5 E46.06775
G1 X106.711 Y97.51 E46.0897
G1 X43.049 Y97.51 E48.92406
G0 F3600 X48.672 Y81.862
G0 X90.804 Y62.3
G1 F1800 X59.194 Y62.3 E50.33141
G1 X59.193 Y61.7 E50.35812
G1 X90.803 Y61.69 E51.76546
G1 X90.804 Y62.3 E51.79262
G0 F3600 X91.204 Y62.7
G1 F1800 X58.794 Y62.7 E53.23558
G1 X58.793 Y61.3 E53.29791
G1 X91.203 Y61.29 E54.74087
G1 X91.204 Y62.7 E54.80364
G0 F3600 X91.605 Y63.1
G1 F1800 X58.395 Y63.1 E56.28222
G1 X58.392 Y60.9 E56.38017
G1 X91.602 Y60.89 E57.85874
G1 X91.605 Y63.1 E57.95714
G0 F3600 X92.005 Y63.5
G1 F1800 X57.995 Y63.5 E59.47133
G1 X57.992 Y60.5 E59.6049
G1 X92.002 Y60.49 E61.11909
G1 X92.005 Y63.5 E61.2531
G0 F3600 X92.406 Y63.9
G1 F1800 X57.596 Y63.9 E62.80291
G1 X57.591 Y60.1 E62.9721
G1 X92.401 Y60.09 E64.52191
G1 X92.406 Y63.9 E64.69154
G0 F3600 X92.806 Y64.3
G1 F1800 X57.196 Y64.3 E66.27697
G1 X57.191 Y59.7 E66.48177
G1 X92.801 Y59.69 E68.0672
G1 X92.806 Y64.3 E68.27244
G0 F3600 X93.207 Y64.7
G1 F1800 X56.797 Y64.7 E69.89349
G1 X56.79 Y59.3 E70.13391
G1 X93.2 Y59.29 E71.75496
G1 X93.207 Y64.7 E71.99582
G0 F3600 X93.607 Y65.1
G1 F1800 X56.397 Y65.1 E73.65249
G1 X56.39 Y58.9 E73.92852
G1 X93.6 Y58.89 E75.58519
G1 X93.607 Y65.1 E75.86167
G0 F3600 X94.007 Y65.5
G1 F1800 X55.997 Y65.5 E77.55395
G1 X55.99 Y58.5 E77.8656
G1 X94 Y58.49 E79.55789
G1 X94.007 Y65.5 E79.86999
G0 F3600 X94.407 Y65.9
G1 F1800 X55.597 Y65.9 E81.59789
G1 X55.59 Y58.1 E81.94516
G1 X94.4 Y58.09 E83.67306
G1 X94.407 Y65.9 E84.02077
G0 F3600 X94.807 Y66.3
G1 F1800 X55.197 Y66.3 E85.78429
G1 X55.19 Y57.7 E86.16718
G1 X94.8 Y57.69 E87.9307
G1 X94.807 Y66.3 E88.31403
G0 F3600 X95.207 Y66.7
G1 F1800 X54.797 Y66.7 E90.11317
G1 X54.79 Y57.3 E90.53167
G1 X95.2 Y57.29 E92.33081
G1 X95.207 Y66.7 E92.74976
G0 F3600 X95.607 Y67.1
G1 F1800 X54.397 Y67.1 E94.58451
G1 X54.39 Y56.9 E95.03864
G1 X95.6 Y56.89 E96.87339
G1 X95.607 Y67.1 E97.32796
G0 F3600 X96.007 Y67.5
G1 F1800 X53.997 Y67.5 E99.19833
G1 X53.99 Y56.5 E99.68807
G1 X96 Y56.49 E101.55844
G1 X96.007 Y67.5 E102.04863
G0 F3600 X96.407 Y67.9
G1 F1800 X53.597 Y67.9 E103.95462
G1 X53.59 Y56.1 E104.47998
G1 X96.4 Y56.09 E106.38596
G1 X96.407 Y67.9 E106.91177
G0 F3600 X96.807 Y68.3
G1 F1800 X53.197 Y68.3 E108.85337
G1 X53.19 Y55.7 E109.41435
G1 X96.8 Y55.69 E111.35596
G1 X96.807 Y68.3 E111.91738
G0 F3600 X97.207 Y68.7
G1 F1800 X52.797 Y68.7 E113.8946
G1 X52.79 Y55.3 E114.4912
G1 X97.2 Y55.29 E116.46842
G1 X97.207 Y68.7 E117.06546
G0 F3600 X97.607 Y69.1
G1 F1800 X52.397 Y69.1 E119.0783
G1 X52.39 Y54.9 E119.71051
G1 X97.6 Y54.89 E121.72335
G1 X97.607 Y69.1 E122.35601
G0 F3600 X98.007 Y69.5
G1 F1800 X51.997 Y69.5 E124.40447
G1 X51.99 Y54.5 E125.0723
G1 X98 Y54.49 E127.12076
G1 X98.007 Y69.5 E127.78903
G0 F3600 X98.407 Y69.9
G1 F1800 X51.597 Y69.9 E129.87311
G1 X51.59 Y54.1 E130.57656
G1 X98.4 Y54.09 E132.66063
G1 X98.407 Y69.9 E133.36453
G0 F3600 X98.807 Y70.3
G1 F1800 X51.197 Y70.3 E135.48422
G1 X51.19 Y53.7 E136.22329
G1 X98.8 Y53.69 E138.34298
G1 X98.807 Y70.3 E139.08249
G0 F3600 X99.207 Y70.7
G1 F1800 X50.797 Y70.7 E141.2378
G1 X50.79 Y53.3 E142.01248
G1 X99.2 Y53.29 E144.16779
G1 X99.207 Y70.7 E144.94292
G0 F3600 X99.607 Y71.1
G1 F1800 X50.397 Y71.1 E147.13385
G1 X50.39 Y52.9 E147.94415
G1 X99.6 Y52.89 E150.13508
G1 X99.607 Y71.1 E150.94583
G0 F3600 X100.007 Y71.5
G1 F1800 X49.997 Y71.5 E153.17237
G1 X49.99 Y52.5 E154.01829
G1 X100 Y52.49 E156.24484
G1 X100.007 Y71.5 E157.0912
G0 F3600 X100.407 Y71.9
G1 F1800 X49.597 Y71.9 E159.35336
G1 X49.59 Y52.1 E160.2349
G1 X100.4 Y52.09 E162.49706
G1 X100.407 Y71.9 E163.37905
G0 F3600 X100.807 Y72.3
G1 F1800 X49.197 Y72.3 E165.67683
G1 X49.19 Y51.7 E166.59398
G1 X100.8 Y51.69 E168.89176
G1 X100.807 Y72.3 E169.80936
G0 F3600 X101.207 Y72.7
G1 F1800 X48.797 Y72.7 E172.14276
G1 X48.79 Y51.3 E173.09553
G1 X101.2 Y51.29 E175.42893
G1 X101.207 Y72.7 E176.38215
G0 F3600 X101.607 Y73.1
G1 F1800 X48.397 Y73.1 E178.75116
G1 X48.39 Y50.9 E179.73955
G1 X101.6 Y50.89 E182.10857
G1 X101.607 Y73.1 E183.0974
G0 F3600 X102.007 Y73.5
G1 F1800 X47.997 Y73.5 E185.50204
G1 X47.99 Y50.5 E186.52604
G1 X102 Y50.49 E188.93068
G1 X102.007 Y73.5 E189.95513
G0 F3600 X102.407 Y73.9
G1 F1800 X47.597 Y73.9 E192.39538
G1 X47.59 Y50.1 E193.455
G1 X102.4 Y50.09 E195.89526
G1 X102.407 Y73.9 E196.95533
G0 F3600 X102.807 Y74.3
G1 F1800 X47.197 Y74.3 E199.43119
G1 X47.19 Y49.7 E200.52644
G1 X102.8 Y49.69 E203.00231
G1 X102.807 Y74.3 E204.09799
G0 F3600 X103.207 Y74.7
G1 F1800 X46.797 Y74.7 E206.60948
G1 X46.79 Y49.3 E207.74034
G1 X103.2 Y49.29 E210.25183
G1 X103.207 Y74.7 E211.38313
G0 F3600 X103.607 Y75.1
G1 F1800 X46.397 Y75.1 E213.93023
G1 X46.39 Y48.9 E215.09671
G1 X103.6 Y48.89 E217.64382
G1 X103.607 Y75.1 E218.81074
G0 F3600 X104.007 Y75.5
G1 F1800 X45.997 Y75.5 E221.39346
G1 X45.99 Y48.5 E222.59556
G1 X104 Y48.49 E225.17828
G1 X104.007 Y75.5 E226.38082
G0 F3600 X104.407 Y75.9
G1 F1800 X45.597 Y75.9 E228.99916
G1 X45.59 Y48.1 E230.23687
G1 X104.4 Y48.09 E232.85521
G1 X104.407 Y75.9 E234.09337
G0 F3600 X104.807 Y76.3
G1 F1800 X45.197 Y76.3 E236.74732
G1 X45.19 Y47.7 E238.02065
G1 X104.8 Y47.69 E240.67461
G1 X104.807 Y76.3 E241.94839
G0 F3600 X105.207 Y76.7
G1 F1800 X44.797 Y76.7 E244.63796
G1 X44.79 Y47.3 E245.94691
G1 X105.2 Y47.29 E248.63648
G1 X105.207 Y76.7 E249.94588
G0 F3600 X105.607 Y77.1
G1 F1800 X44.397 Y77.1 E252.67107
G1 X44.39 Y46.9 E254.01563
G1 X105.6 Y46.89 E256.74083
G1 X105.607 Y77.1 E258.08584
G0 F3600 X105.69 Y77.5
G1 F1800 X44.31 Y77.5 E260.8186
G1 X44.31 Y93.16 E261.51581
G1 X105.69 Y93.16 E264.24857
G1 X105.69 Y77.5 E264.94579
G0 F3600 X105.29 Y77.9
G1 F1800 X44.71 Y77.9 E267.64293
G1 X44.71 Y92.76 E268.30453
G1 X105.29 Y92.76 E271.00167
G1 X105.29 Y77.9 E271.66327
G0 F3600 X104.89 Y78.3
G1 F1800 X45.11 Y78.3 E274.3248
G1 X45.11 Y92.36 E274.95078
G1 X104.89 Y92.36 E277.6123
G1 X104.89 Y78.3 E278.23828
G0 F3600 X104.49 Y78.7
G1 F1800 X45.51 Y78.7 E280.86419
G1 X45.51 Y91.96 E281.45455
G1 X104.49 Y91.96 E284.08046
G1 X104.49 Y78.7 E284.67082
G0 F3600 X104.09 Y79.1
G1 F1800 X45.91 Y79.1 E287.26111
G1 X45.91 Y91.56 E287.81586
G1 X104.09 Y91.56 E290.40615
G1 X104.09 Y79.1 E290.96089
G0 F3600 X103.69 Y79.5
G1 F1800 X46.31 Y79.5 E293.51557
G1 X46.31 Y91.16 E294.03469
G1 X103.69 Y91.16 E296.58937
G1 X103.69 Y79.5 E297.10849
G0 F3600 X103.29 Y79.9
G1 F1800 X46.71 Y79.9 E299.62755
G1 X46.71 Y90.76 E300.11106
G1 X103.29 Y90.76 E302.63011
G1 X103.29 Y79.9 E303.11362
G0 F3600 X102.89 Y80.3
G1 F1800 X47.11 Y80.3 E305.59706
G1 X47.11 Y90.36 E306.04495
G1 X102.89 Y90.36 E308.52839
G1 X102.89 Y80.3 E308.97628
G0 F3600 X102.49 Y80.7
G1 F1800 X47.51 Y80.7 E311.4241
G1 X47.51 Y89.96 E311.83638
G1 X102.49 Y89.96 E314.2842
G1 X102.49 Y80.7 E314.69647
G0 F3600 X102.09 Y81.1
G1 F1800 X47.91 Y81.1 E317.10867
G1 X47.91 Y89.56 E317.48533
G1 X102.09 Y89.56 E319.89753
G1 X102.09 Y81.1 E320.27419
G0 F3600 X106 Y46.49
G1 F1800 X106.01 Y93.51 E322.36761
G1 X44 Y93.51 E325.12842
G1 X43.99 Y46.5 E327.2214
G1 X106 Y46.49 E329.98221
G0 F3600 X106.33 Y46.09
G1 F1800 X106.4 Y46.09 E329.98533
G1 X106.41 Y93.91 E332.11437
G1 X43.6 Y93.91 E334.9108
G1 X43.59 Y46.1 E337.0394
G1 X106.33 Y46.09 E339.83271
G0 F3600 X106.33 Y45.69
G1 F1800 X106.8 Y45.69 E339.85364
G1 X106.81 Y94.306 E342.01812
G1 X106.641 Y94.31 E342.02565
G1 X43.2 Y94.31 E344.85017
G1 X43.19 Y45.7 E347.01438
G1 X106.33 Y45.69 E349.8255
G0 F3600 X106.33 Y45.29
G1 F1800 X106.865 Y45.29 E349.84932
G1 X107.02 Y45.3 E349.85624
G1 X107.062 Y45.309 E349.85815
G1 X107.075 Y45.313 E349.85875
G1 X107.1 Y45.326 E349.86001
G1 X107.13 Y45.347 E349.86164
G1 X107.139 Y45.355 E349.86218
G1 X107.171 Y45.394 E349.86442
G1 X107.181 Y45.418 E349.86558
G1 X107.199 Y45.482 E349.86854
G1 X107.2 Y45.49 E349.8689
G1 X107.21 Y94.365 E352.04491
G1 X107.2 Y94.525 E352.05205
G1 X107.192 Y94.564 E352.05382
G1 X107.173 Y94.602 E352.05571
G1 X107.151 Y94.634 E352.05744
G1 X107.109 Y94.668 E352.05985
G1 X107.088 Y94.681 E352.06095
G1 X107.07 Y94.689 E352.06182
G1 X107.037 Y94.698 E352.06335
G1 X107.005 Y94.702 E352.06478
G1 X106.65 Y94.71 E352.08059
G1 X43.136 Y94.71 E354.90836
G1 X42.982 Y94.7 E354.91523
G1 X42.93 Y94.689 E354.9176
G1 X42.888 Y94.668 E354.91969
G1 X42.87 Y94.655 E354.92068
G1 X42.865 Y94.65 E354.921
G1 X42.83 Y94.608 E354.92343
G1 X42.818 Y94.579 E354.92483
G1 X42.801 Y94.518 E354.92765
G1 X42.8 Y94.51 E354.928
G1 X42.79 Y45.635 E357.10402
G1 X42.8 Y45.48 E357.11093
G1 X42.809 Y45.438 E357.11285
G1 X42.815 Y45.421 E357.11365
G1 X42.829 Y45.394 E357.115
G1 X42.848 Y45.367 E357.11647
G1 X42.851 Y45.364 E357.11666
G1 X42.893 Y45.33 E357.11907
G1 X42.918 Y45.319 E357.12028
G1 X42.982 Y45.301 E357.12324
G1 X42.99 Y45.3 E357.1236
G1 X106.33 Y45.29 E359.94363
G0 F3600 X106.33 Y44.89
G1 F1800 X106.875 Y44.89 E359.96789
G1 X107.077 Y44.903 E359.9769
G1 X107.174 Y44.923 E359.98131
G1 X107.234 Y44.945 E359.98416
G1 X107.308 Y44.983 E359.98786
G1 X107.383 Y45.035 E359.99193
G1 X107.431 Y45.08 E359.99485
G1 X107.497 Y45.161 E359.99951
G1 X107.527 Y45.209 E360.00203
G1 X107.559 Y45.285 E360.0057
G1 X107.591 Y45.398 E360.01093
G1 X107.6 Y45.462 E360.0138
G1 X107.61 Y94.376 E362.19155
G1 X107.597 Y94.577 E362.20052
G1 X107.576 Y94.677 E362.20507
G1 X107.559 Y94.724 E362.2073
G1 X107.517 Y94.808 E362.21148
G1 X107.461 Y94.888 E362.21583
G1 X107.423 Y94.928 E362.21828
G1 X107.341 Y94.995 E362.223
G1 X107.275 Y95.036 E362.22646
G1 X107.204 Y95.066 E362.22989
G1 X107.121 Y95.09 E362.23373
G1 X107.031 Y95.102 E362.23778
G1 X106.659 Y95.11 E362.25434
G1 X43.125 Y95.11 E365.083
G1 X42.925 Y95.097 E365.09193
G1 X42.824 Y95.076 E365.09652
G1 X42.773 Y95.058 E365.09893
G1 X42.681 Y95.011 E365.10353
G1 X42.614 Y94.964 E365.10717
G1 X42.572 Y94.924 E365.10975
G1 X42.505 Y94.842 E365.11447
G1 X42.473 Y94.789 E365.11722
